outputs/icons/content/flag_sharp.svg

<svg xmlns="http://www.w3.org/2000/svg" width="1200" height="1200" fill="none"><g clip-path="url(#a)"><path fill="#000" d="m720 300-20-100H250v850h100V700h280l20 100h350V300z"/></g><defs><clipPath id="a"><path fill="#fff" d="M0 0h1200v1200H0z"/></clipPath></defs></svg>

<svg width="1200" height="1200" viewBox="0 0 1200 1200" fill="none" xmlns="http://www.w3.org/2000/svg"><g clip-path="url(#clip0_225_3131)"><path d="M720 300L700 200H250V1050H350V700H630L650 800H1000V300H720Z" fill="black"/></g><defs><clipPath id="clip0_225_3131"><path width="24" fill="white" d="M0 0H1200V1200H0V0z"/></clipPath></defs></svg>
